archdroid-icon-theme/Archdroid-Pink/actions/scalable/bookmark-add-symbolic.svg

<svg xmlns="http://www.w3.org/2000/svg" fill="#E91E63" viewBox="0 0 48 48"><path d="m14 6c-2.21 0-3.98 1.79-3.98 4l-.02 32 14-6 14 6v-32c0-2.21-1.79-4-4-4h-20m8 6h4v8h8v4h-8v8h-4v-8h-8v-4h8v-8"/></svg>

<?xml version="1.0" encoding="UTF-8" standalone="no"?>
<svg
   xmlns:dc="http://purl.org/dc/elements/1.1/"
   xmlns:cc="http://creativecommons.org/ns#"
   xmlns:rdf="http://www.w3.org/1999/02/22-rdf-syntax-ns#"
   xmlns:svg="http://www.w3.org/2000/svg"
   xmlns="http://www.w3.org/2000/svg"
   xmlns:sodipodi="http://sodipodi.sourceforge.net/DTD/sodipodi-0.dtd"
   xmlns:inkscape="http://www.inkscape.org/namespaces/inkscape"
   fill="#E91E63"
   width="48"
   height="48"
   viewBox="0 0 48 48"
   id="svg2"
   version="1.1"
   inkscape:version="0.91 r13725"
   sodipodi:docname="bookmark.svg">
  <metadata
     id="metadata10">
    <rdf:RDF>
      <cc:Work
         rdf:about="">
        <dc:format>image/svg+xml</dc:format>
        <dc:type
           rdf:resource="http://purl.org/dc/dcmitype/StillImage" />
      </cc:Work>
    </rdf:RDF>
  </metadata>
  <defs
     id="defs8" />
  <sodipodi:namedview
     pagecolor="#ffffff"
     bordercolor="#666666"
     borderopacity="1"
     objecttolerance="10"
     gridtolerance="10"
     guidetolerance="10"
     inkscape:pageopacity="0"
     inkscape:pageshadow="2"
     inkscape:window-width="1366"
     inkscape:window-height="713"
     id="namedview6"
     showgrid="false"
     inkscape:zoom="3.795750125125504"
     inkscape:cx="43.59760177324326"
     inkscape:cy="10.78128943346528"
     inkscape:window-x="0"
     inkscape:window-y="30"
     inkscape:window-maximized="1"
     inkscape:current-layer="svg2" />
  <path
     d="M 14 6 C 11.79 6 10.01953125 7.790000000000001 10.01953125 10 L 10 42 L 24 36 L 38 42 L 38 10 C 38 7.79 36.21 6.000000000000001 34 6 L 14 6 z M 22 12 L 26 12 L 26 20 L 34 20 L 34 24 L 26 24 L 26 32 L 22 32 L 22 24 L 14 24 L 14 20 L 22 20 L 22 12 z "
     id="path4" />
</svg>
